material/.icons/material/chat-minus-outline.svg

<svg xmlns="http://www.w3.org/2000/svg" viewBox="0 0 24 24"><path d="M12 3c5.5 0 10 3.58 10 8 0 1.46-.5 2.82-1.34 4h-2.7c1.27-1.06 2.04-2.46 2.04-4 0-3.31-3.58-6-8-6s-8 2.69-8 6 3.58 6 8 6l1-.05v2.01L12 19c-1.19 0-2.38-.17-3.53-.5C6.64 20 4.37 20.89 2 21c2.33-2.33 2.75-3.9 2.75-4.5A7.218 7.218 0 012 11c0-4.42 4.5-8 10-8m3 14h8v2h-8v-2z"/></svg>

<?xml version="1.0" encoding="UTF-8"?><!DOCTYPE svg PUBLIC "-//W3C//DTD SVG 1.1//EN" "http://www.w3.org/Graphics/SVG/1.1/DTD/svg11.dtd"><svg xmlns="http://www.w3.org/2000/svg" xmlns:xlink="http://www.w3.org/1999/xlink" version="1.1" id="mdi-chat-minus-outline" width="24" height="24" viewBox="0 0 24 24"><path d="M12 3C17.5 3 22 6.58 22 11C22 12.46 21.5 13.82 20.66 15H17.96C19.23 13.94 20 12.54 20 11C20 7.69 16.42 5 12 5C7.58 5 4 7.69 4 11C4 14.31 7.58 17 12 17L13 16.95V18.96L12 19C10.81 19 9.62 18.83 8.47 18.5C6.64 20 4.37 20.89 2 21C4.33 18.67 4.75 17.1 4.75 16.5C3.06 15.17 2.05 13.15 2 11C2 6.58 6.5 3 12 3M15 17H23V19H15V17Z" /></svg>
